www/assets/icons/construction.svg

<svg width="24" height="24" viewBox="0 0 24 24" xmlns="http://www.w3.org/2000/svg" fill='currentColor'><path d="M15.9039 13.1602L13.7826 15.2815L19.7788 21.2777L21.9001 19.1564L15.9039 13.1602Z"/><path d="M17.4999 10.1097C19.4299 10.1097 20.9999 8.53967 20.9999 6.60967C20.9999 6.02967 20.8399 5.48967 20.5899 5.00967L17.8899 7.70967L16.3999 6.21967L19.0999 3.51967C18.6199 3.26967 18.0799 3.10967 17.4999 3.10967C15.5699 3.10967 13.9999 4.67967 13.9999 6.60967C13.9999 7.01967 14.0799 7.40967 14.2099 7.76967L12.3599 9.61967L10.5799 7.83967L11.2899 7.12967L9.87991 5.71967L11.9999 3.59967C10.8299 2.42967 8.92991 2.42967 7.75991 3.59967L4.21991 7.13967L5.62991 8.54967H2.80991L2.09991 9.25967L5.63991 12.7997L6.34991 12.0897V9.25967L7.75991 10.6697L8.46991 9.95967L10.2499 11.7397L2.83991 19.1497L4.95991 21.2697L16.3399 9.89967C16.6999 10.0297 17.0899 10.1097 17.4999 10.1097Z"/></svg>

<svg xmlns="http://www.w3.org/2000/svg" width="24" height="24" viewBox="0 0 24 24" fill='currentColor'><path d="m15.904 13.16-2.121 2.121 5.996 5.997 2.121-2.122zm1.596-3.05c1.93 0 3.5-1.57 3.5-3.5 0-.58-.16-1.12-.41-1.6l-2.7 2.7-1.49-1.49 2.7-2.7c-.48-.25-1.02-.41-1.6-.41-1.93 0-3.5 1.57-3.5 3.5 0 .41.08.8.21 1.16l-1.85 1.85-1.78-1.78.71-.71-1.41-1.41L12 3.6a3 3 0 0 0-4.24 0L4.22 7.14l1.41 1.41H2.81l-.71.71 3.54 3.54.71-.71V9.26l1.41 1.41.71-.71 1.78 1.78-7.41 7.41 2.12 2.12L16.34 9.9c.36.13.75.21 1.16.21"/></svg>
